images_sukapura_svg/cmd/32/gallery.svg

<svg height="32" viewBox="0 0 32 32" width="32" xmlns="http://www.w3.org/2000/svg" xmlns:xlink="http://www.w3.org/1999/xlink"><radialGradient id="a" cx="12" cy="17.5" gradientTransform="matrix(1.7777778 -.00000002 .00000003 1.3333333 -9.333334 1.666667)" gradientUnits="userSpaceOnUse" r="9"><stop offset="0" stop-color="#fff9ea"/><stop offset=".29417419" stop-color="#fdd6ba"/><stop offset=".75" stop-color="#f6ac8b"/><stop offset="1" stop-color="#c79fc7"/></radialGradient><filter id="b" color-interpolation-filters="sRGB" height="1.264" width="1.058667" x="-.029333" y="-.132"><feGaussianBlur stdDeviation=".22"/></filter><clipPath id="c"><path d="m3 14c.4875945 0 6-4 6-4l2 1.593356 4-1.593356h2l4 2v2z"/></clipPath><radialGradient id="d" cx="15.000001" cy="13.642857" gradientTransform="matrix(1.6666667 .00000041 -.00000016 .77777777 -10 14.388883)" gradientUnits="userSpaceOnUse" r="9"><stop offset="0" stop-color="#f7f2f6"/><stop offset=".40000007" stop-color="#c2a2ba"/><stop offset=".75000006" stop-color="#be9bb4"/><stop offset="1" stop-color="#ac80a1"/></radialGradient><g transform="matrix(1.33333 0 0 1.33333 .00004 -11.333265)"><path d="m1.4999737 9.9999737v21.0000523h21.0000523v-21.0000523z" fill="#98989d" stroke-width="1.032621"/><path d="m3 11h18v18h-18z" fill="#fff"/><path d="m2.2499756 10.749976v19.500048h19.5000484v-19.500048zm.7500469.750001h18.0000005l-.000023 17.500023h-18z" fill="#fff"/><path d="m2.9999775 11.499977h17.9999995l.000023 13.500023h-18z" fill="url(#a)"/><path d="m3 25c.4875945 0 6-4 6-4l2 1.593356 4-1.593356h2l4 2v2z" fill="#1f1c1f" fill-rule="evenodd"/><path clip-path="url(#c)" d="m9 10s-5.5124055 4-6 4h1.6992188c1.7852844-1.183321 4.3007812-3 4.3007812-3l2 1.59375 4-1.59375h2l4 2v-1l-4-2h-2l-4 1.59375z" fill="#808080" fill-rule="evenodd" filter="url(#b)" transform="translate(0 11)"/><path d="m3 25h18l.000023 4.500023h-18.0000005z" fill="url(#d)"/></g></svg>

<?xml version="1.0" encoding="UTF-8" standalone="no"?>
<svg
   xmlns:dc="http://purl.org/dc/elements/1.1/"
   xmlns:cc="http://creativecommons.org/ns#"
   xmlns:rdf="http://www.w3.org/1999/02/22-rdf-syntax-ns#"
   xmlns:svg="http://www.w3.org/2000/svg"
   xmlns="http://www.w3.org/2000/svg"
   xmlns:sodipodi="http://sodipodi.sourceforge.net/DTD/sodipodi-0.dtd"
   xmlns:inkscape="http://www.inkscape.org/namespaces/inkscape"
   viewBox="0 0 32 32"
   version="1.1"
   id="svg43"
   sodipodi:docname="gallery.svg"
   inkscape:version="0.92.3 (unknown)"
   width="32"
   height="32">
  <metadata
     id="metadata49">
    <rdf:RDF>
      <cc:Work
         rdf:about="">
        <dc:format>image/svg+xml</dc:format>
        <dc:type
           rdf:resource="http://purl.org/dc/dcmitype/StillImage" />
        <dc:title></dc:title>
      </cc:Work>
    </rdf:RDF>
  </metadata>
  <defs
     id="defs47" />
  <sodipodi:namedview
     pagecolor="#ffffff"
     bordercolor="#666666"
     borderopacity="1"
     objecttolerance="10"
     gridtolerance="10"
     guidetolerance="10"
     inkscape:pageopacity="0"
     inkscape:pageshadow="2"
     inkscape:window-width="1366"
     inkscape:window-height="706"
     id="namedview45"
     showgrid="true"
     inkscape:zoom="6.9532165"
     inkscape:cx="3.6442735"
     inkscape:cy="0.59175439"
     inkscape:window-x="0"
     inkscape:window-y="0"
     inkscape:window-maximized="1"
     inkscape:current-layer="svg43">
    <inkscape:grid
       type="xygrid"
       id="grid1541" />
  </sodipodi:namedview>
  <radialGradient
     id="a"
     cx="12"
     cy="17.5"
     gradientTransform="matrix(1.7777778,-2e-8,3e-8,1.3333333,-9.333334,1.666667)"
     gradientUnits="userSpaceOnUse"
     r="9">
    <stop
       offset="0"
       stop-color="#fff9ea"
       id="stop2" />
    <stop
       offset=".29417419"
       stop-color="#fdd6ba"
       id="stop4" />
    <stop
       offset=".75"
       stop-color="#f6ac8b"
       id="stop6" />
    <stop
       offset="1"
       stop-color="#c79fc7"
       id="stop8" />
  </radialGradient>
  <filter
     id="b"
     height="1.2640001"
     width="1.0586669"
     x="-0.029332999"
     y="-0.132"
     style="color-interpolation-filters:sRGB">
    <feGaussianBlur
       stdDeviation=".22"
       id="feGaussianBlur11" />
  </filter>
  <clipPath
     id="c">
    <path
       d="m 3,14 c 0.4875945,0 6,-4 6,-4 L 11,11.593356 15,10 h 2 l 4,2 v 2 z"
       id="path14"
       inkscape:connector-curvature="0" />
  </clipPath>
  <radialGradient
     id="d"
     cx="15.000001"
     cy="13.642857"
     gradientTransform="matrix(1.6666667,4.1e-7,-1.6e-7,0.77777777,-10,14.388883)"
     gradientUnits="userSpaceOnUse"
     r="9">
    <stop
       offset="0"
       stop-color="#f7f2f6"
       id="stop17" />
    <stop
       offset=".40000007"
       stop-color="#c2a2ba"
       id="stop19" />
    <stop
       offset=".75000006"
       stop-color="#be9bb4"
       id="stop21" />
    <stop
       offset="1"
       stop-color="#ac80a1"
       id="stop23" />
  </radialGradient>
  <filter
     id="e"
     height="1.0024608"
     width="1.0023419"
     x="-0.0011709495"
     y="-0.0012304238"
     style="color-interpolation-filters:sRGB">
    <feGaussianBlur
       stdDeviation="0.010354344"
       id="feGaussianBlur26" />
  </filter>
  <g
     id="g842"
     transform="matrix(1.33333,0,0,1.33333,4e-5,-11.333265)">
    <path
       sodipodi:nodetypes="ccccc"
       inkscape:connector-curvature="0"
       style="opacity:1;fill:#98989d;fill-opacity:1;stroke-width:1.03262079"
       id="path29"
       d="M 1.4999737,9.9999737 V 31.000026 H 22.500026 V 9.9999737 Z" />
    <path
       style="fill:#ffffff"
       inkscape:connector-curvature="0"
       id="path31"
       d="M 3,11 H 21 V 29 H 3 Z" />
    <path
       style="fill:#ffffff"
       inkscape:connector-curvature="0"
       id="path33"
       d="M 2.2499756,10.749976 V 30.250024 H 21.750024 V 10.749976 Z m 0.7500469,0.750001 H 21.000023 L 21,29 H 3 Z"
       sodipodi:nodetypes="cccccccccc" />
    <path
       style="fill:url(#a)"
       inkscape:connector-curvature="0"
       id="path35"
       d="M 2.9999775,11.499977 H 20.999977 L 21,25 H 3 Z"
       sodipodi:nodetypes="ccccc" />
    <path
       style="fill:#1f1c1f;fill-rule:evenodd"
       inkscape:connector-curvature="0"
       id="path37"
       d="m 3,25 c 0.4875945,0 6,-4 6,-4 L 11,22.593356 15,21 h 2 l 4,2 v 2 z" />
    <path
       style="fill:#808080;fill-rule:evenodd;filter:url(#b)"
       inkscape:connector-curvature="0"
       id="path39"
       transform="translate(0,11)"
       d="m 9,10 c 0,0 -5.5124055,4 -6,4 H 4.6992188 C 6.4845032,12.816679 9,11 9,11 L 11,12.59375 15,11 h 2 l 4,2 v -1 l -4,-2 h -2 l -4,1.59375 z"
       clip-path="url(#c)" />
    <path
       style="fill:url(#d)"
       inkscape:connector-curvature="0"
       id="path41"
       d="m 3,25 h 18 l 2.3e-5,4.500023 H 3.0000225 Z"
       sodipodi:nodetypes="ccccc" />
  </g>
</svg>
